tools/download-figma-icons/icons/outlined-medium/filter.svg

<svg width="24" height="24" viewBox="0 0 24 24" fill="none" xmlns="http://www.w3.org/2000/svg">
<path fill-rule="evenodd" clip-rule="evenodd" d="M10.4999 18.2863L13.4999 19.7863V11.9998C13.4999 11.837 13.5524 11.6795 13.6499 11.5505L19.4999 3.74976H4.49989L10.3499 11.5505C10.4474 11.6795 10.4999 11.837 10.4999 11.9998V18.2863ZM14.2499 21.7498C14.1351 21.7498 14.0204 21.7235 13.9146 21.671L9.41464 19.421C9.16039 19.2935 8.99989 19.034 8.99989 18.7498V12.2495L2.39989 3.44976C2.22964 3.22251 2.20264 2.91876 2.32864 2.66451C2.45614 2.41026 2.71564 2.24976 2.99989 2.24976H20.9999C21.2841 2.24976 21.5436 2.41026 21.6711 2.66451C21.7971 2.91876 21.7701 3.22251 21.5999 3.44976L14.9999 12.2495V20.9998C14.9999 21.26 14.8649 21.5008 14.6436 21.638C14.5236 21.7123 14.3871 21.7498 14.2499 21.7498Z" fill="black"/>
</svg>

<svg width="24" height="24" viewBox="0 0 24 24" fill="none" xmlns="http://www.w3.org/2000/svg"><path fill-rule="evenodd" clip-rule="evenodd" d="m10.5 18.286 3 1.5V12c0-.163.052-.32.15-.45l5.85-7.8h-15l5.85 7.8c.097.13.15.287.15.45v6.286Zm3.75 3.464a.754.754 0 0 1-.335-.079l-4.5-2.25A.75.75 0 0 1 9 18.75v-6.5l-6.6-8.8a.75.75 0 0 1 .6-1.2h18a.75.75 0 0 1 .6 1.2l-6.6 8.8V21a.75.75 0 0 1-.75.75Z" fill="currentColor"/></svg>
